X:1
T:Bridge of Newe, The
T:Bridge of Newe, The
T:Alexander Walker
C:Alexander Walker
L:1/8
M:4/4
K:Emin
V:1 treble 
V:1
 B<(ee>)f g>f e2 | B>dA>B F<dF>D | B<(ee>)f g>ef>d | B>Ad>F E/E/E E :| e | B>EG>E B>E G2 | %6
 A>DF>D d>A F2 | G>EB,>EG>AB>c | d>BA>F E/E/E E>e | B,>EG>E B>E G2 | A,>DF>D | A>DF>D | %12
 B,>ED>F E>GF>e | d>BA>F E/E/E E || %14

